!!!!SEGMENT: pl-kozmzk--mzk-m-31--013_szymanowska-maria--preludium-b-dur.krn
!!!cenid: 18xx:449
!!!COM: Szymanowska, Maria
!!!COM-rismID:
!!!CDT: 1789/12/14-1831/07/25
!!!CNT: Polish
!!!GTL: Vingt Exercices et Préludes pour le Pianoforte
!!!OTL: Preludium B-dur
!!!PDT: 1819
!!!AGN: Secular; Prelude
!!!SMS-siglum: PL-KOZmzk
!!!SMS-shelfmark: mzk/m/31
!!!SMS-shelfwork: 013 G
!!!SMS-variant:
!!!SMS-altvar:
!!!NIFC-rismSourceID: 1001025336
!!!NIFC-islandoraID: pl-kozmzk:6325
!!!URL-pdf-islandora: https://repozytorium.nifc.pl/islandora/object/pl-kozmzk%3A6325/datastream/PDF/view
!!!URL-scan: https://polish.musicsources.pl/pl/lokalizacje/galeria/rekopisy/462 @EN{Scan on Polish Music Herritage in Open Access Website} @PL{Skany w portalu Dziedzictwo Muzyki Polskiej w otwartym dostępie}
!!!ONB-nifc:
!!!AIN: 2 piano
!!!key:
**kern	**fing	**kern	**fing	**dynam
*part2	*	*part1	*	*part1
*staff2	*	*staff1	*	*
*Ipiano	*	*Ipiano	*	*
*I"Piano	*	*I"Piano	*	*
*clefF4	*	*clefG2	*	*
*k[b-e-]	*	*k[b-e-]	*	*
*B-:	*	*B-:	*	*
*M2/4	*	*M2/4	*	*
*>[A,A,B]	*	*>[A,A,B]	*	*
=1	=1	=1	=1	=1
*	*	*Xtuplet	*	*
!LO:TX:a:t=P:problem=mixed beam	!	!LO:TX:a:t=Scherzo	!	!
8BB-`/L	.	(24f\LL	1	.
.	.	24dd\	4	.
.	.	24dd\	3	.
8F^>\J 8B-\ 8d\	.	24dd\	2	.
.	.	24cc\	4	.
.	.	24b-\JJ)	3	.
!LO:TX:a:t=P:problem=mixed beam	!	!	!	!
*	*	*tuplet	*	*
!	!	!LO:TUP:a	!	!
8C`/L	.	(24a\LL	2	.
.	.	24ee-\	4	.
.	.	24ee-\	3	.
8F^>\J 8A\ 8e-\	.	24ee-\	2	.
.	.	24dd\	4	.
.	.	24cc\JJ)	3	.
=2	=2	=2	=2	=2
*	*	*Xtuplet	*	*
8D\L	.	24b-\LL	.	.
.	.	24ff\	.	.
.	.	24ff\	.	.
8B-\J 8f\	.	24ff^\	.	.
.	.	24ee-\	.	.
.	.	24dd\JJ	.	.
8E-\L	.	24cc\LL	.	.
.	.	24gg\	.	.
.	.	24gg\	.	.
8c\J 8e-\	.	24gg^\	.	.
.	.	24ff\	.	.
.	.	24ee-\JJ	.	.
=3	=3	=3	=3	=3
8F\L	.	24dd\LL	.	.
.	.	24bb-\	.	.
.	.	24bb-\	.	.
8B-\J 8d\ 8f\	.	24bb-^\	.	.
.	.	24ff\	.	.
.	.	24dd\JJ	.	.
8F\L	.	24cc\LL	.	.
.	.	24ff\	.	.
.	.	24ff\	.	.
8A\J 8c\	.	24ff^\	.	.
.	.	24een\	.	.
.	.	24ee-X\JJ	.	.
!!LO:LB:g=original
=4	=4	=4	=4	=4
16F\ 16B-\ 16d\	.	(24dd^\LL	.	.
.	.	24cc\	.	.
16r	.	.	.	.
.	.	24b-\)	.	.
16D\ 16F\ 16B-\	.	(24b-^\	.	.
.	.	24a\	.	.
16r	.	.	.	.
.	.	24g\JJ)	.	.
16C/ 16E-/ 16F/ 16A/	.	(24g^/LL	.	.
.	.	24f/	.	.
16r	.	.	.	.
.	.	24e-/)	.	.
16FF/ 16AA/ 16E-/	.	(24e-^/	.	.
.	.	24d/	.	.
16r	.	.	.	.
.	.	24c/JJ)	.	.
=5	=5	=5	=5	=5
!LO:TX:a:t=P:problem=mixed beam	!	!	!	!
8BB-/L 8D/	.	24B-/	.	.
.	.	24dd\LL	4	.
.	.	24dd\	3	.
8F\J 8d\	.	24dd\	2	.
.	.	24cc\	4	.
.	.	24b-\JJ	3	.
!LO:TX:a:t=P:problem=mixed beam	!	!	!	!
8C/L 8F/	.	24a\LL	2	.
.	.	24ee-\	4	.
.	.	24ee-\	3	.
8A\J 8e-\	.	24ee-\	2	.
.	.	24dd\	4	.
.	.	24cc\JJ	3	.
=6	=6	=6	=6	=6
8D\L 8B-\	.	24b-\LL	.	.
.	.	24ff\	.	.
.	.	24ff\	.	.
8B-\J 8d\ 8f\	.	24ff\	.	.
.	.	24ee-\	.	.
.	.	24dd\JJ	.	.
8En\L 8B-\	.	24cc#X\LL	.	.
.	.	24gg\	.	.
.	.	24gg\	.	.
8c#X\J 8g\	.	24gg\	.	.
.	.	24ff\	.	.
.	.	24een\JJ	.	.
!!LO:LB:g=original
=7	=7	=7	=7	=7
8F\L	.	24ff\LL	.	.
.	.	24fff\	.	.
.	.	24fff\	.	.
8B-\J 8d\ 8f\	.	24fff\	.	.
.	.	24ddd\	.	.
.	.	24bb-\JJ	.	.
8F\L	.	24ff\LL	.	.
.	.	24ff\	.	.
.	.	24ff\	.	.
8A\J 8e-\	.	24ff\	.	.
.	.	24ee-\	.	.
.	.	24cc\JJ	.	.
=8	=8	=8	=8	=8
*Xtuplet	*	*	*	*
24d\	.	24b-/LL	.	.
24F\LL	4	24f/	.	f
24F\	3	24f/	.	.
24F\	2	24f/	.	.
24E-\	.	24e-/	.	.
24C\JJ	.	24c/JJ	.	.
8BB-/L	.	8B-/	.	.
8BBB-/J	.	8r	.	.
*>B	*	*>B	*	*
=9:|!|:	=9:|!|:	=9:|!|:	=9:|!|:	=9:|!|:
*clefG2	*	*	*	*
8F/L	.	24ff\LL	4	p
.	.	24ff\	3	.
.	.	24ff\	2	.
8c/J 8e-/ 8a/	.	24ff\	1	.
.	.	8qaa/	4	.
.	.	24gg^<\	3	.
.	.	24ff\JJ	2	.
8F/L	.	24ff\LL	.	.
.	.	24ff\	.	.
.	.	24ff\	.	.
8d/J 8b-/	.	24ff\	.	.
.	.	8qaa/	.	.
.	.	24gg^<\	.	.
.	.	24ff\JJ	.	.
!!LO:LB:g=original
=10	=10	=10	=10	=10
8F/L	.	24ff\LL	.	.
.	.	24ff\	.	.
.	.	24ff\	.	.
8c/J 8e-/ 8a/	.	24ff\	.	.
.	.	8qaa/	.	.
.	.	24gg^<\	.	.
.	.	24ff\JJ	.	.
8F/L	.	24ff\LL	.	.
.	.	24ff\	.	.
.	.	24ff\	.	.
8d/J 8b-/	.	24ff\	.	.
.	.	8qaa/	.	.
.	.	24gg^<\	.	.
.	.	24ff\JJ	.	.
=11	=11	=11	=11	=11
8F/L	.	24gg\LL	4	<
.	.	24gg\	3	.
.	.	24gg\	2	.
8Bn/J 8d/ 8g/	.	24gg\	1	.
.	.	24aa\	2	.
.	.	24bbn\JJ	3	.
8E-/L	.	24ccc\LL	4	.
.	.	24ccc\	3	.
.	.	24ccc\	2	.
8c/J 8g/	.	24ccc\	1	.
.	.	24ddd\	2	.
.	.	24eee-\JJ	3	[[
*clefF4	*	*	*	*
=12	=12	=12	=12	=12
8F\L 8A-X\ 8c\ 8d\	.	24ddd\LL	2	f
.	.	24ddd\	4	.
.	.	24ddd\	3	.
8G\J 8Bn\ 8f\	.	24ddd\	2	.
.	.	24eee-\	3	.
.	.	24ddd\JJ	2	.
4c\ 4e-\	.	(8.ccc\L	1	.
.	.	16gg-X^<\Jk)	.	.
!!LO:LB:g=original
=13	=13	=13	=13	=13
*clefG2	*	*	*	*
8F/L	.	24ff\LL	.	.
.	.	24ff\	.	.
.	.	24ff\	.	.
8c/J 8e-/ 8a/	.	24ff\	.	.
.	.	8qaa-/	.	.
.	.	24gg-X^\	.	.
.	.	24ff\JJ	.	.
8F/L	.	24ff\LL	.	.
.	.	24ff\	.	.
.	.	24ff\	.	.
8d-X/J 8f/ 8b-/	.	24ff\	.	.
.	.	8qaa-/	.	.
.	.	24gg-^\	.	.
.	.	24ff\JJ	.	.
=14	=14	=14	=14	=14
8F/L	.	24ff\LL	.	.
.	.	24ff\	.	.
.	.	24ff\	.	.
8c/J 8e-/ 8a/	.	24ff\	.	.
.	.	8qaa-/	.	.
.	.	24gg-X^\	.	.
.	.	24ff\JJ	.	.
8F/L	.	24ff\LL	.	.
.	.	24ff\	.	.
.	.	24ff\	.	.
8d-X/J 8f/ 8b-/	.	24ff\	.	.
.	.	8qaa-/	.	.
.	.	24gg-^\	.	.
.	.	24ff\JJ	.	.
*clefF4	*	*	*	*
=15	=15	=15	=15	=15
8E-\	.	24ff\LL	.	<
.	.	24ff\	.	.
.	.	24ff\	.	.
*clefG2	*	*	*	*
8c/ 8e-/ 8a/	.	24ff\	.	.
.	.	24gg\	.	.
.	.	24aan\JJ	.	.
*clefF4	*	*	*	*
8D-X\	.	24bb-\LL	.	.
.	.	24bb-\	.	.
.	.	24bb-\	.	.
*clefG2	*	*	*	*
8B-/ 8d-X/ 8f/	.	24bb-\	.	.
.	.	24ccc\	.	.
.	.	24ddd-X\JJ	.	[[
*clefF4	*	*	*	*
!!LO:PB:g=original
=16	=16	=16	=16	=16
8E-L\ 8G-X\ 8B-\ 8c\	.	24ccc\LL	.	f
.	.	24ccc\	.	.
.	.	24ccc\	.	.
8F\ 8A\ 8e-\J	.	24ccc\	.	.
.	.	24ddd-X\	.	.
.	.	24ccc\JJ	.	.
8B-\ 8d-X\	.	(8.bb-\L	.	.
8r	.	.	.	.
.	.	16aa^\Jk)	.	.
=17	=17	=17	=17	=17
8AA-X/	.	24aa-X\LL	.	f
.	.	24aa-\	.	.
.	.	24aa-\	.	.
*clefG2	*	*	*	*
8A-X/ 8c/ 8g-X/	.	24aa-\	.	.
.	.	24bb-\	.	.
.	.	24ccc\JJ	.	.
*clefF4	*	*	*	*
8AA-/	.	[8ddd-X\L	.	.
*clefG2	*	*	*	*
8A-/ 8d-X/ 8f/	.	24ddd-\L]	.	.
.	.	24ccc\	.	.
.	.	24bb-\JJ	.	.
*clefF4	*	*	*	*
=18	=18	=18	=18	=18
8AA-X/	.	24aa-X\LL	.	.
.	.	24aa-\	.	.
.	.	24aa-\	.	.
*clefG2	*	*	*	*
8A-X/ 8c/ 8g-X/	.	24aa-\	.	.
.	.	24bb-\	.	.
.	.	24aa-\JJ	.	.
*clefF4	*	*	*	*
.	.	16qqaa-/LL	.	.
.	.	16qqgg-X/JJ	.	.
8AA-/	.	4ff^<\	.	.
*clefG2	*	*	*	*
8A-/ 8d-X/ 8f/	.	.	.	.
=19	=19	=19	=19	=19
!LO:SIC:o:s=:v:brak klucza F4	!	!	!	!
!LO:TX:a:t=P:problem=mixed beam	!	!	!	!
8e-X/L	.	(24ee-`\LL	.	rfz
.	.	24ee-`\	.	.
.	.	24ee-`\	.	.
.	.	8qff/	.	.
8gg\J 8ccc\	.	24ee-`\	.	.
.	.	24dd-X`\	.	.
.	.	24ee-`\JJ)	.	.
!LO:TX:a:t=P:problem=mixed beam	!	!	!	!
8d/L	.	(24ff`\LL	.	.
.	.	24ff`\	.	.
.	.	24ff`\J	.	.
8ff\J 8ddd\	.	8ff^\J)	.	.
!!LO:LB:g=original
=20	=20	=20	=20	=20
*clefF4	*	*	*	*
8GG-X/L	.	24en/LL	.	p
.	.	24e/	.	.
.	.	24e/	.	.
.	.	8qf/	.	.
8BB-/J 8En/	.	24e/	.	.
.	.	24dn/	.	<
.	.	24e/JJ	.	.
4FF/ 4AA/ 4F/	.	(24f`/LL	.	.
.	.	24f`/	.	.
.	.	24f`/	.	.
.	.	24f`/	.	.
.	.	24g`/	.	.
.	.	24a`/JJ)	.	[[
=21	=21	=21	=21	=21
(24BB-\LL	.	24b-\LL	.	.
24F\	.	24dd\	.	.
24B-\J)	.	24dd\	.	.
8d^\J	.	24dd\	.	.
.	.	24cc\	.	.
.	.	24b-\JJ	.	.
(24C\LL	.	24a\LL	.	.
24F\	.	24ee-\	.	.
24A\J)	.	24ee-\	.	.
8e-^\J	.	24ee-\	.	.
.	.	24dd\	.	.
.	.	24cc\JJ	.	.
=22	=22	=22	=22	=22
(24D\LL	.	24b-\LL	.	.
24F\	.	24ff\	.	.
24B-\J)	.	24ff\	.	.
8d^\J	.	24ff\	.	.
.	.	24ee-\	.	.
.	.	24dd\JJ	.	.
(24E-\LL	.	24cc\LL	.	.
24c\	.	24gg\	.	.
24e-\J)	.	24gg\	.	.
8g^\J	.	24gg\	.	.
.	.	24ff\	.	.
.	.	24ee-\JJ	.	.
!!LO:LB:g=original
=23	=23	=23	=23	=23
24F\LL	.	24dd\LL	.	.
24B-\	.	24bb-\	.	.
24d\J	.	24bb-\	.	.
8f\J	.	24bb-\	.	.
.	.	24ff\	.	.
.	.	24dd\JJ	.	.
24F\LL	.	24cc\LL	.	.
24A\	.	24ff\	.	.
24c\J	.	24ff\	.	.
8f\J	.	24ff\	.	.
.	.	24een\	.	.
.	.	24ee-X\JJ	.	.
=24	=24	=24	=24	=24
24F^\LL	.	24dd/LL	.	.
24B-\	.	24cc/	.	.
24d\	.	24b-/	.	.
24D^\	.	24b-/	.	.
24F\	.	24a/	.	.
24B-\JJ	.	24g/JJ	.	.
24AA^/LL	.	24g/LL	.	.
24C/	.	24f/	.	.
24E-/	.	24e-/	.	.
24FF^/	.	24e-/	.	.
24AA/	.	24d/	.	.
24E-/JJ	.	24c/JJ	.	.
=25	=25	=25	=25	=25
24BB-/ 24D/	.	24B-/	.	.
24F\LL	.	24dd\LL	.	f
24B-\	.	24dd\	.	.
24d\	.	24dd\	.	.
24B-\	.	24cc\	.	.
24F\JJ	.	24b-\JJ	.	.
24C\LL	.	24a\LL	.	.
24F\	.	24ee-\	.	.
24A\	.	24ee-\	.	.
24e-\	.	24ee-\	.	.
24A\	.	24dd\	.	.
24F\JJ	.	24cc\JJ	.	.
!!LO:LB:g=original
=26	=26	=26	=26	=26
24D\LL	.	24b-\LL	.	.
24B-\	.	24ff\	.	.
24d\	.	24ff\	.	.
24f\	.	24ff\	.	.
24d\	.	24ee-\	.	.
24B-\JJ	.	24dd\JJ	.	.
24En\LL	.	24cc#X\LL	.	rfz
24B-\	.	24bb-\	.	.
24c#X\	.	24bb-\	.	.
24g\	.	24bb-\	.	.
24c#\	.	24aa\	.	.
24B-\JJ	.	24gg\JJ	.	.
=27	=27	=27	=27	=27
24F\LL	.	24ff\LL	.	.
24B-\	.	24fff\	.	.
24d\	.	24fff\	.	.
24f\	.	24fff\	.	.
24d\	.	24ddd\	.	.
24B-\JJ	.	24bb-\JJ	.	.
24F\LL	.	24ff\LL	.	.
24A\	.	24ff\	.	.
24e-\	.	24ff\	.	.
24f\	.	24ff\	.	.
24e-\	.	24ee-\	.	.
24A\JJ	.	24cc\JJ	.	.
=28	=28	=28	=28	=28
!	!	!LO:TX:a:t=1.Vol.	!	!
24B-\ 24d\	.	24b-/LL	.	f
24F\LL	.	24f/	.	.
24F\	.	24f/	.	.
24F\	.	24f/	.	.
24E-\	.	24e-/	.	.
24C\JJ	.	24c/JJ	.	.
8BB-/L	.	8B-/	.	.
8BBB-/J	.	8r	.	.
!!LO:LB:g=original
=29:|!	=29:|!	=29:|!	=29:|!	=29:|!
!	!	!LO:TX:a:t=2.Vol.	!	!
24B-\ 24d\	.	4b-\ 4dd\ 4ff\	.	<
*clefG2	*	*	*	*
24f/LL	4	.	.	.
24f/	3	.	.	.
24f/	2	.	.	.
24g/	1	.	.	.
24f/JJ	2	.	.	.
24en/LL	3	4b-\ 4cc\ 4gg\	.	.
24e/	4	.	.	.
24e/	3	.	.	.
24e/	2	.	.	.
24f/	1	.	.	.
24e/JJ	2	.	.	.
=30	=30	=30	=30	=30
24e-X/LL	.	4cc\ 4ff\ 4aa\	.	.
24e-/	.	.	.	.
24e-/	.	.	.	.
24e-/	.	.	.	.
24f/	.	.	.	.
24e-/JJ	.	.	.	.
24d/LL	.	4b-\ 4ff\ 4bb-\	.	.
24d/	.	.	.	.
24d/	.	.	.	.
24d/	.	.	.	.
24e-/	.	.	.	.
24d/JJ	.	.	.	[[
=31	=31	=31	=31	=31
24e-/	.	24b-\ 24ee-\ 24gg\	.	.
*clefF4	*	*	*	*
(24E-\LL	.	24g/LL	.	ff
24F\	.	24a/	.	.
.	.	8qcc/	.	.
24G\	.	24b-^>/	.	.
24F\	.	24a/	.	.
24E-\JJ)	.	24g/JJ	.	.
16F\	.	16f/	.	.
16r	.	16r	.	.
8FF\ 8F\	.	8cc\ 8ee-\ 8aa\	.	.
=32	=32	=32	=32	=32
4BBB-/ 4BB-/	.	4b-\ 4dd\ 4bb-\	.	.
4r;	.	4r;	.	.
!LO:TX:b:t=3043	!	!	!	!
==	==	==	==	==
*-	*-	*-	*-	*-
!!!system-decoration: [(s1,s2)]
!!!RDF**kern: > = above
!!!RDF**kern: < = below
!!!EED: Leszek Kubiak
!!!EEV: 2020-07-22
!!!ENC: Berenika Jozajtis
!!!END: 2020-06-16
